dist/images/why-icon-case.svg

<svg width="20" height="18" viewBox="0 0 20 18" fill="none" xmlns="http://www.w3.org/2000/svg">
<path fill-rule="evenodd" clip-rule="evenodd" d="M7.87451 8.25C7.87451 7.83579 8.2103 7.5 8.62451 7.5H10.8745C11.2887 7.5 11.6245 7.83579 11.6245 8.25C11.6245 8.66421 11.2887 9 10.8745 9H8.62451C8.2103 9 7.87451 8.66421 7.87451 8.25Z" fill="#112E49"/>
<path fill-rule="evenodd" clip-rule="evenodd" d="M19.3994 8.46634C19.6069 8.82487 19.4844 9.28367 19.1259 9.4911C16.2763 11.1397 13.0415 12.0054 9.74951 12.0004C6.45804 12.0054 3.22377 11.14 0.374596 9.49193C0.0160452 9.28453 -0.106488 8.82574 0.100911 8.46719C0.30831 8.10864 0.767103 7.9861 1.12565 8.1935C3.74619 9.70932 6.72097 10.5052 9.74833 10.5004H9.75069C12.7786 10.5052 15.7538 9.70905 18.3747 8.19274C18.7332 7.98531 19.192 8.1078 19.3994 8.46634Z" fill="#112E49"/>
<path fill-rule="evenodd" clip-rule="evenodd" d="M5.90852 0.65901C6.33048 0.237053 6.90277 0 7.49951 0H11.9995C12.5962 0 13.1685 0.237053 13.5905 0.65901C14.0125 1.08097 14.2495 1.65326 14.2495 2.25V3.75C14.2495 4.16421 13.9137 4.5 13.4995 4.5C13.0853 4.5 12.7495 4.16421 12.7495 3.75V2.25C12.7495 2.05109 12.6705 1.86032 12.5298 1.71967C12.3892 1.57902 12.1984 1.5 11.9995 1.5H7.49951C7.3006 1.5 7.10983 1.57902 6.96918 1.71967C6.82853 1.86032 6.74951 2.05109 6.74951 2.25V3.75C6.74951 4.16421 6.41373 4.5 5.99951 4.5C5.5853 4.5 5.24951 4.16421 5.24951 3.75V2.25C5.24951 1.65326 5.48657 1.08097 5.90852 0.65901Z" fill="#112E49"/>
<path fill-rule="evenodd" clip-rule="evenodd" d="M0.000488281 4.5C0.000488281 3.67157 0.672061 3 1.50049 3H18.0005C18.8289 3 19.5005 3.67157 19.5005 4.5V16.5C19.5005 17.3284 18.8289 18 18.0005 18H1.50049C0.672061 18 0.000488281 17.3284 0.000488281 16.5V4.5ZM18.0005 4.5H1.50049V16.5H18.0005V4.5Z" fill="#112E49"/>
<path opacity="0.36" d="M9.74976 11.2503C6.59019 11.2553 3.48549 10.4247 0.750488 8.84267V16.5003C0.750487 16.5988 0.769886 16.6963 0.807577 16.7873C0.845268 16.8783 0.900512 16.961 0.970157 17.0307C1.0398 17.1003 1.12248 17.1555 1.21347 17.1932C1.30447 17.2309 1.402 17.2503 1.50049 17.2503H18.0005C18.099 17.2503 18.1965 17.2309 18.2875 17.1932C18.3785 17.1555 18.4612 17.1003 18.5308 17.0307C18.6005 16.961 18.6557 16.8783 18.6934 16.7873C18.7311 16.6963 18.7505 16.5988 18.7505 16.5003V8.8418C16.0152 10.4244 12.9099 11.2553 9.74976 11.2503V11.2503Z" fill="url(#paint0_linear_955_12041)"/>
<defs>
<linearGradient id="paint0_linear_955_12041" x1="9.75049" y1="8.8418" x2="9.75049" y2="17.2503" gradientUnits="userSpaceOnUse">
<stop stop-color="#4396D2"/>
<stop offset="1" stop-color="#1E6CB4"/>
</linearGradient>
</defs>
</svg>

<svg width="20" height="18" fill="none" xmlns="http://www.w3.org/2000/svg"><path fill-rule="evenodd" clip-rule="evenodd" d="M7.875 8.25a.75.75 0 01.75-.75h2.25a.75.75 0 010 1.5h-2.25a.75.75 0 01-.75-.75z" fill="#112E49"/><path fill-rule="evenodd" clip-rule="evenodd" d="M19.4 8.466a.75.75 0 01-.274 1.025 18.667 18.667 0 01-9.376 2.51A18.667 18.667 0 01.375 9.49a.75.75 0 01.75-1.297A17.167 17.167 0 009.749 10.5h.003a17.167 17.167 0 008.624-2.307.75.75 0 011.024.273zM5.909.659A2.25 2.25 0 017.499 0H12a2.25 2.25 0 012.25 2.25v1.5a.75.75 0 01-1.5 0v-1.5A.75.75 0 0012 1.5H7.5a.75.75 0 00-.75.75v1.5a.75.75 0 11-1.5 0v-1.5c0-.597.238-1.169.66-1.591z" fill="#112E49"/><path fill-rule="evenodd" clip-rule="evenodd" d="M0 4.5A1.5 1.5 0 011.5 3H18a1.5 1.5 0 011.5 1.5v12A1.5 1.5 0 0118 18H1.5A1.5 1.5 0 010 16.5v-12zm18 0H1.5v12H18v-12z" fill="#112E49"/><path opacity=".36" d="M9.75 11.25a17.916 17.916 0 01-9-2.407V16.5a.75.75 0 00.75.75H18a.75.75 0 00.75-.75V8.842a17.916 17.916 0 01-9 2.408z" fill="url(#paint0_linear_955_12041)"/><defs><linearGradient id="paint0_linear_955_12041" x1="9.75" y1="8.842" x2="9.75" y2="17.25" gradientUnits="userSpaceOnUse"><stop stop-color="#4396D2"/><stop offset="1" stop-color="#1E6CB4"/></linearGradient></defs></svg>
